!!!!SEGMENT: pl-gd--ee-1638--002-022_marenzio-luca--motettorum-pro-festis-totius-anni-in-festo-s-laurentij-mart-beatus-laurentius.krn
!!!cenid: 15xx:1025
!!!COM: Marenzio, Luca
!!!COM-rismID: pe30003955
!!!CDT: ~1553-1599/08/22
!!!CNT: Italian
!!!GTL: Motettorum pro festis totius anni
!!!OTL: In festo S. Laurentij Mart./Beatus Laurentius
!!!OMV: 022
!!!PDT: 1588
!!!AGN:
!!!SMS-siglum: PL-GD
!!!SMS-shelfmark: Ee 1638
!!!SMS-shelfwork: 002-022 G
!!!SMS-variant:
!!!SMS-altvar:
!!!NIFC-rismSourceID: 1001202747
!!!NIFC-rismChildID: 990039238
!!!NIFC-islandoraID: pl-gd:57883
!!!URL-pdf-islandora: https://repozytorium.nifc.pl/islandora/object/pl-gd%3A57883/datastream/PDF/view
!!!URL-scan: https://polish.musicsources.pl/pl/lokalizacje/galeria/klocki-introligatorskie/655 @EN{Scan on Polish Music Sources Website} @PL{Skany w portalu Dziedzictwo Muzyki Polskiej w otwartym dostępie}
!!!ONB-nifc: UWAGA: Cantus: s. 627 (lewa), Altus: s. 475 (lewa), Tenor: s. 323 (lewa), Bassus: s. 171 (lewa)
!!!AIN: 1 alto 1 bass 1 soprn 1 tenor
!!!key:
**kern	**text	**kern	**text	**kern	**text	**kern	**text
*part4	*part4	*part3	*part3	*part2	*part2	*part1	*part1
*staff4	*staff4	*staff3	*staff3	*staff2	*staff2	*staff1	*staff1
*I"BASSVS	*	*I"TENOR	*	*I"ALTVS	*	*I"CANTVS	*
*I'B	*	*I'T	*	*I'A	*	*I'S	*
*ICvox	*	*ICvox	*	*ICvox	*	*ICvox	*
*Ibass	*	*Itenor	*	*Ialto	*	*Isoprn	*
*clefF3	*	*clefC3	*	*clefC2	*	*clefG2	*
*k[b-]	*	*k[b-]	*	*k[b-]	*	*k[b-]	*
*C:	*	*C:	*	*C:	*	*C:	*
*M2/1	*	*M2/1	*	*M2/1	*	*M2/1	*
*met(C|)	*	*met(C|)	*	*met(C|)	*	*met(C|)	*
=1-	=1-	=1-	=1-	=1-	=1-	=1-	=1-
*xywh-#171:1036,566,3481,864	*	*	*	*	*	*	*
*	*	*xywh-#323:1116,484,3419,883	*	*	*	*	*
*	*	*	*	*xywh-#475:1006,540,3417,885	*	*	*
*	*	*	*	*	*	*xywh-#627:1048,481,3465,912	*
!LO:TX:t=P:problem: w źródle podwójnie bemol przy znakach przykluczowych: BB- B-	!	!	!	!LO:TX:t=P:problem: podwójnie bemol przy znakach przykluczowych: B- b-	!	!	!
0r	.	00r	.	0g	BE-	00r	.
=2-	=2-	=2-	=2-	=2-	=2-	=2-	=2-
0c	BE-	.	.	1g	-a-	.	.
.	.	.	.	1e	-tus	.	.
=3-	=3-	=3-	=3-	=3-	=3-	=3-	=3-
1c	-a-	00r	.	1g	Lau-	0cc	BE-
1A	-tus	.	.	2.a\	-ren-	.	.
.	.	.	.	4a\	-ti-	.	.
=4-	=4-	=4-	=4-	=4-	=4-	=4-	=4-
1c	Lau-	.	.	2g\	-us	1cc	-a-
.	.	.	.	2e/	dum	.	.
2.d\	-ren-	.	.	2f\	in	1a	-tus
.	.	.	.	2d/	cra-	.	.
4d\	-ti-	.	.	.	.	.	.
=5-	=5-	=5-	=5-	=5-	=5-	=5-	=5-
2c\	-us	1r	.	2.e/	-ti-	1cc	Lau-
2A\	dum	.	.	.	.	.	.
.	.	.	.	4e/	-cu-	.	.
2B-\	in	2r	.	1d	-la	2.dd\	-ren-
2G\	cra-	1g\	Su-	.	.	.	.
.	.	.	.	.	.	4dd\	-ti-
=6-	=6-	=6-	=6-	=6-	=6-	=6-	=6-
2.A\	-ti-	.	.	1r	.	2cc\	-us
.	.	2f#X\	-per	.	.	2a/	dum
4A\	-cu-	.	.	.	.	.	.
1G	-la	2.g\	po-	2r	.	2b-/	in
.	.	.	.	1g\	ſu-	2g/	cra-
.	.	4g\	-ſi-	.	.	.	.
=7-	=7-	=7-	=7-	=7-	=7-	=7-	=7-
0r	.	1d	-tus	.	.	2.a/	-ti-
.	.	.	.	2f#X\	-per	.	.
.	.	.	.	.	.	4a/	-cu-
.	.	2e\	vre-	2.g\	po-	2g/	-la
.	.	2e\	-re-	.	.	1gg\	ſu-
!	!	!	!	!LO:SIC:v:t=custos a	!	!	!
.	.	.	.	4g\	-ſi-	.	.
*	*	*	*	*xywh-#475:1006,1238,3409,681	*	*	*
!	!	!	!	!LO:LB:g=original	!	!	!
=8-	=8-	=8-	=8-	=8-	=8-	=8-	=8-
1r	.	1d	-tur	1a	-tus	.	.
!	!	!	!	!	!	!LO:SIC:v:t=custos gg	!
.	.	.	.	.	.	2ff#X\	-per
*	*	*	*	*	*	*xywh-#627:1041,1164,3472,776	*
!LO:SIC:v:t=custos G	!	!	!	!LO:N:acc=#	!	!LO:LB:g=original	!
*	*ij	*	*	*	*	*	*
1G	Be-	1g	.	2bn\	vre-	2.gg\	po-
.	.	.	.	2.cc\	.	.	.
.	.	.	.	.	.	4gg\	-ſi-
*xywh-#171:1028,1218,3481,738	*	*	*	*	*	*	*
!LO:LB:g=original	!	!	!	!	!	!	!
=9-	=9-	=9-	=9-	=9-	=9-	=9-	=9-
1G	-a-	1r	.	.	.	1dd	-tus
!	!	!	!	!LO:N:acc=#	!	!	!
.	.	.	.	8bn\	.	.	.
.	.	.	.	8a\	.	.	.
!	!	!	!	!LO:N:acc=#	!	!	!
.	.	.	.	2bn\	.	.	.
!	!	!LO:SIC:v:t=custos g	!	!	!	!LO:N:acc=#	!
1E	-tus	1g	Be-	4cc\	.	2ee n\	vre-
.	.	.	.	4g\	.	.	.
.	.	.	.	2.cc\	-re-	2ee\	-re-
*	*	*xywh-#323:1146,1137,3419,768	*	*	*	*	*
!	!	!LO:LB:g=original	!	!	!	!	!
=10-	=10-	=10-	=10-	=10-	=10-	=10-	=10-
1G	Lau-	1g	-a-	.	.	1dd	-tur
.	.	.	.	8b-y\	.	.	.
.	.	.	.	8a\	.	.	.
!	!	!	!	!LO:N:acc=#	!	!	!
.	.	.	.	2bn\	.	.	.
2.A\	-ren-	1e	-tus	2cc\	-tur	1cc	.
.	.	.	.	2a\	dum	.	.
4A\	-ti-	.	.	.	.	.	.
=11-	=11-	=11-	=11-	=11-	=11-	=11-	=11-
!	!	!	!	!LO:N:acc=#	!	!	!
2G\	-us	1g	Lau-	2bn\	in	1r	.
2E/	dum	.	.	2cc\	cra-	.	.
2F/	in	2.a\	-ren-	2.fny\	-ti-	2r	.
2D/	cra-	.	.	.	.	1dd\	ſu-
.	.	4a\	-ti-	4f\	-cu-	.	.
=12-	=12-	=12-	=12-	=12-	=12-	=12-	=12-
2.E/	-ti-	2g\	-us	1e	-la	.	.
.	.	2e\	dum	.	.	2cc#X\	-per
4E/	-cu-	.	.	.	.	.	.
2D/	-la	2fny\	in	2r	.	2.dd\	po-
*	*Xij	*	*	*	*	*	*
1d\	ſu-	2d\	cra-	1a\	ſu-	.	.
.	.	.	.	.	.	4dd\	-ſi-
=13-	=13-	=13-	=13-	=13-	=13-	=13-	=13-
.	.	2.e\	-ti-	.	.	1a	-tus
!	!	!	!	!LO:SIC:v:t=custos f	!	!	!
2c#X\	-per	.	.	2e/	-per	.	.
.	.	4e\	-cu-	.	.	.	.
*	*	*	*	*xywh-#475:990,1755,3417,721	*	*	*
!	!	!	!	!LO:LB:g=original	!	!	!
2.d\	po-	1a	-la	2.f\	po-	2r	.
*	*	*	*	*	*	*	*ij
.	.	.	.	.	.	1dd\	su-
4d\	-ſi-	.	.	4f#\	-ſi-	.	.
=14-	=14-	=14-	=14-	=14-	=14-	=14-	=14-
1G	-tus	2r	.	1d	-tus	.	.
!	!	!	!	!	!	!LO:N:acc=#	!
.	.	1g	ſu-	.	.	2bn/	-per
2A\	vre-	.	.	1c	vre-	2.ccny\	po-
2A\	-re-	2f#X\	-per	.	.	.	.
.	.	.	.	.	.	4cc\	-si-
=15-	=15-	=15-	=15-	=15-	=15-	=15-	=15-
!	!	!	!	!	!	!LO:N:acc=#	!
00G	-tur	2.g\	po-	1d	-re-	2bn/	-tus
*	*	*	*	*	*	*	*Xij
.	.	.	.	.	.	2.b/	v-
.	.	4g\	-ſi-	.	.	.	.
.	.	1d	-tus	0.g	-tur	.	.
.	.	.	.	.	.	4cc\	.
!	!	!	!	!	!	!LO:SIC:v:t=custos b	!
.	.	.	.	.	.	2dd\	.
*	*	*	*	*	*	*xywh-#627:1048,1739,3493,697	*
!	!	!	!	!	!	!LO:LB:g=original	!
=16-	=16-	=16-	=16-	=16-	=16-	=16-	=16-
!	!	!	!	!	!	!LO:N:acc=#	!
.	.	2e\	vre-	.	.	2bn/	-re-
.	.	2e\	-re-	.	.	2.cc\	-re-
.	.	1d	-tur	.	.	.	.
.	.	.	.	.	.	8b/	.
.	.	.	.	.	.	8a/	.
!	!	!	!	!	!	!LO:N:acc=#	!
.	.	.	.	.	.	2bn/	.
=17-	=17-	=17-	=17-	=17-	=17-	=17-	=17-
!	!	!LO:SIC:v:t=custos g	!	!	!	!	!
0.C	.	1c	.	1g	.	00cc	-tur
*	*	*xywh-#323:1046,1706,3503,745	*	*	*	*	*
!	!	!LO:LB:g=original	!	!	!	!	!
.	.	0g	ad	0e	ad	.	.
=18-	=18-	=18-	=18-	=18-	=18-	=18-	=18-
1r	.	1.fny	im-	1.a	im-	.	.
=19-	=19-	=19-	=19-	=19-	=19-	=19-	=19-
!LO:SIC:v:t=custos B-	!	!	!	!	!	!	!
0cny	ad	.	.	.	.	0r	.
.	.	2e\	-puſ-	2g\	-puſ-	.	.
.	.	2.e\	-si-	2.g\	-si-	.	.
.	.	4e\	-mum	4g\	-mum	.	.
*xywh-#171:1051,1784,3434,715	*	*	*	*	*	*	*
!LO:LB:g=original	!	!	!	!	!	!	!
=20-	=20-	=20-	=20-	=20-	=20-	=20-	=20-
1.B-	im-	2d\	ty-	2g\	ty-	1r	.
.	.	2d\	-ran-	2fny\	-ran-	.	.
.	.	1c	-num	1.f	-num	0cc	ad
2A\	-puſ-	.	.	.	.	.	.
=21-	=21-	=21-	=21-	=21-	=21-	=21-	=21-
2.A\	-si-	2F/	.	.	.	.	.
.	.	2.f\	di-	2c/	di-	.	.
4A\	-mum	.	.	.	.	.	.
2G\	.	.	.	1g	.	1.b-y	im-
.	.	8e\	.	.	.	.	.
.	.	8d\	.	.	.	.	.
2G\	ty-	2e\	.	.	.	.	.
=22-	=22-	=22-	=22-	=22-	=22-	=22-	=22-
0F	-ran-	1f	-xit	1c	-xit	.	.
.	.	.	.	.	.	2a/	-puſ-
.	.	1c	Aſ-	2r	.	2.a/	-si-
.	.	.	.	2.f\	di-	.	.
.	.	.	.	.	.	4a/	-mum
=23-	=23-	=23-	=23-	=23-	=23-	=23-	=23-
2C/	-num	1c	-ſa-	.	.	2g/	.
.	.	.	.	8e/	.	.	.
!	!	!	!	!LO:SIC:v:t=custos e	!	!	!
.	.	.	.	8d/	.	.	.
*	*	*	*	*xywh-#475:998,2319,3393,721	*	*	*
!	!	!	!	!LO:LB:g=original	!	!	!
2.c\	di-	.	.	4e/	.	2g/	ty-
.	.	.	.	4f\	.	.	.
.	.	1d	-tum	2g\	.	1dd	-ran-
8B-\	.	.	.	.	.	.	.
8A\	.	.	.	.	.	.	.
!LO:N:acc=#	!	!	!	!	!	!	!
2Bn\	.	.	.	2G/	-xit	.	.
=24-	=24-	=24-	=24-	=24-	=24-	=24-	=24-
1c	-xit	2e\	eſt	2r	.	2g/	-num
.	.	2e\	iam	2c/	Aſ-	2.gg\	di-
1r	.	1a	ver-	2c/	-ſa-	.	.
.	.	.	.	.	.	8ffny\	.
.	.	.	.	.	.	8ee\	.
!	!	!	!	!	!	!LO:SIC:v:t=custos gg	!
.	.	.	.	2d/	-tum	2ff#X\	.
*	*	*	*	*	*	*xywh-#627:969,2264,3536,740	*
!	!	!	!	!	!	!LO:LB:g=original	!
=25-	=25-	=25-	=25-	=25-	=25-	=25-	=25-
2r	.	1g	-ſa	2.e/	eſt	2gg\	-xit
2.c\	di-	.	.	.	.	2cc\	Aſ-
.	.	.	.	4f\	.	.	.
.	.	2r	.	1g	.	2cc\	-ſa-
8B-y\	.	.	.	.	.	.	.
8A\	.	.	.	.	.	.	.
!LO:N:acc=#	!	!	!	!	!	!	!
2Bn\	.	2.g\	Aſ-	.	.	2dd\	-tum
=26-	=26-	=26-	=26-	=26-	=26-	=26-	=26-
1.c	-xit	.	.	2r	.	1.ee	eſt
!	!	!LO:SIC:v:t=custos e	!	!	!	!	!
.	.	4f\	.	.	.	.	.
*	*	*xywh-#323:1108,2251,3411,729	*	*	*	*	*
!	!	!LO:LB:g=original	!	!	!	!	!
*	*	*	*	*	*ij	*	*
.	.	4e\	.	1g	as-	.	.
.	.	4d\	.	.	.	.	.
.	.	1c	.	.	.	.	.
2F/	Aſ-	.	.	1a\	-sa-	2ffny\	iam
=27-	=27-	=27-	=27-	=27-	=27-	=27-	=27-
2F/	-ſa-	2A/	-ſa-	.	.	1dd	ver-
!LO:SIC:v:t=custos A	!	!	!	!	!	!	!
2G\	-tum	2B-/	-tum	2g\	-tum	.	.
*xywh-#171:1067,2350,3473,691	*	*	*	*	*	*	*
!LO:LB:g=original	!	!	!	!	!	!	!
1.A	eſt	1c	eſt	1e	est	1cc	-ſa
=28-	=28-	=28-	=28-	=28-	=28-	=28-	=28-
.	.	1f	iam	0r	.	0r	.
2B-y\	iam	.	.	.	.	.	.
1G	ver-	1e	ver-	.	.	.	.
=29-	=29-	=29-	=29-	=29-	=29-	=29-	=29-
1F	-ſa	2f\	-ſa	2r	.	2r	.
.	.	2c/	Aſ-	2a\	as-	2cc\	Aſ-
1r	.	2f\	-ſa-	2a\	-sa-	2cc\	-ſa-
.	.	2d\	-tum	2f\	-tum	2dd\	-tum
=30-	=30-	=30-	=30-	=30-	=30-	=30-	=30-
!	!	!	!	!LO:SIC:v:t=custos cc	!	!	!
0r	.	2.c/	eſt	1g	est	1.ee	eſt
.	.	4B-/	.	.	.	.	.
*	*	*	*	*xywh-#475:998,2868,3425,697	*	*	*
!	!	!	!	!LO:LB:g=original	!	!	!
*	*	*	*	*	*Xij	*	*
.	.	1A	.	1cc	iam	.	.
.	.	.	.	.	.	2ff\	iam
=31-	=31-	=31-	=31-	=31-	=31-	=31-	=31-
!	!	!	!	!LO:N:acc=#	!	!	!
1r	.	1r	.	1bn	ver-	1dd	ver-
2r	.	2r	.	1cc	-ſa	1cc	-ſa
2c\	iam	2g\	iam	.	.	.	.
=32-	=32-	=32-	=32-	=32-	=32-	=32-	=32-
1A	ver-	1f#X	ver-	0r	.	1r	.
2G\	-ſa	1g	-ſa	.	.	2.gg\	et
2.G\	et	.	.	.	.	.	.
.	.	.	.	.	.	4ff\	man-
=33-	=33-	=33-	=33-	=33-	=33-	=33-	=33-
!	!	!	!	!	!	!LO:SIC:v:t=custos dd	!
.	.	2.g\	et	2r	.	2ee\	-du-
4A\	man-	.	.	.	.	.	.
*	*	*	*	*	*	*xywh-#627:1026,2839,3493,682	*
!LO:N:acc=#	!	!	!	!	!	!LO:LB:g=original	!
2Bn\	-du-	.	.	2.g\	et	2dd\	-ca
.	.	4f\	man-	.	.	.	.
2c\	-ca	2e\	-du-	.	.	2.gg\	et
.	.	.	.	4a\	man-	.	.
!	!	!LO:SIC:v:t=custos g	!	!LO:N:acc=#	!	!	!
2G\	et	2d\	-ca	2bn\	-du-	.	.
.	.	.	.	.	.	4ff\	man-
*	*	*xywh-#323:1177,2805,3319,768	*	*	*	*	*
!	!	!LO:LB:g=original	!	!	!	!	!
=34-	=34-	=34-	=34-	=34-	=34-	=34-	=34-
2C/	man-	2.g\	et	2cc\	-ca	2ee\	-du-
2G\	-du-	.	.	4b-y\	.	2dd\	-ca
.	.	4f\	man-	4a\	.	.	.
2c\	-ca	2e\	-du-	2g\	.	2.cc\	et
*	*	*	*	*	*ij	*	*
2F/	nam	2c/	-ca	2.a\	et	.	.
.	.	.	.	.	.	4b-/	man-
=35-	=35-	=35-	=35-	=35-	=35-	=35-	=35-
!LO:SIC:v:t=custos F	!	!	!	!	!	!	!
2F/	fa-	2.f\	et	.	.	1a	-du-
.	.	.	.	4b-\	man-	.	.
*xywh-#171:1059,2829,3426,762	*	*	*	*	*	*	*
!LO:LB:g=original	!	!	!	!	!	!	!
2F/	-cul-	.	.	1cc	-du-	.	.
.	.	4e\	man-	.	.	.	.
1G	-ta-	0d	-du-	.	.	1g	-ca
.	.	.	.	4b-\	.	.	.
.	.	.	.	4a\	.	.	.
=36-	=36-	=36-	=36-	=36-	=36-	=36-	=36-
2G\	-tes	.	.	4b-\	-ca	1r	.
.	.	.	.	8a\	.	.	.
.	.	.	.	8g\	.	.	.
2B-y\	Ec-	.	.	4f\	.	.	.
.	.	.	.	4g\	.	.	.
4A\	-cle-	2c/	.	2a\	.	1cc	nam
4B-\	.	.	.	.	.	.	.
4c\	.	2.A/	.	2e/	.	.	.
4B-\	.	.	.	.	.	.	.
*	*	*	*	*	*Xij	*	*
=37-	=37-	=37-	=37-	=37-	=37-	=37-	=37-
4A\	.	.	.	1r	.	2cc\	fa-
4G\	.	4B-/	.	.	.	.	.
4F/	.	1c	.	.	.	2cc\	-cul-
4E/	.	.	.	.	.	.	.
!	!	!	!	!LO:SIC:v:t=custos f	!	!	!
1.D	.	.	.	1f	nam	1dd	-ta-
.	.	4B-/	.	.	.	.	.
.	.	4A/	.	.	.	.	.
*	*	*	*	*xywh-#475:982,3417,3440,721	*	*	*
!	!	!	!	!LO:LB:g=original	!	!	!
=38-	=38-	=38-	=38-	=38-	=38-	=38-	=38-
.	.	2B-/	.	2f\	fa-	2dd\	-tes
2D/	-si-	2A/	-ca	2f\	-cul-	2ff\	Ec-
0C	-ae	2r	.	1g	-ta-	4ee\	-cle-
.	.	.	.	.	.	4ff\	.
.	.	2c/	nam	.	.	4gg\	.
.	.	.	.	.	.	4ff\	.
=39-	=39-	=39-	=39-	=39-	=39-	=39-	=39-
.	.	2c/	fa-	2g\	-tes	4ee\	.
!	!	!	!	!	!	!LO:SIC:v:t=custos cc	!
.	.	.	.	.	.	4dd\	.
*	*	*	*	*	*	*xywh-#627:1005,3371,3500,740	*
!	!	!	!	!	!	!LO:LB:g=original	!
.	.	2c/	-cul-	2a\	Ec-	4cc\	.
.	.	.	.	.	.	4b-\	.
1r	.	1d	-ta-	4f\	-cle-	1.a	.
.	.	.	.	4g\	.	.	.
.	.	.	.	4a\	.	.	.
.	.	.	.	4g\	.	.	.
=40-	=40-	=40-	=40-	=40-	=40-	=40-	=40-
2r	.	2d\	-tes	2f\	.	.	.
!	!	!LO:SIC:v:t=custos e	!	!	!	!	!
2r	.	2f\	Ec-	2d/	-ſi-	2a/	-ſi-
*	*	*xywh-#323:1085,3350,3427,768	*	*	*	*	*
!	!	!LO:LB:g=original	!	!	!	!	!
1C	na(m)	4e\	-cle-	4g\	-ae	0g	-ae
.	.	4f\	.	4f\	.	.	.
.	.	4g\	.	4e/	.	.	.
.	.	4f\	.	4d/	.	.	.
=41-	=41-	=41-	=41-	=41-	=41-	=41-	=41-
2C/	fa-	4e\	.	2c/	Ec-	.	.
.	.	4d\	.	.	.	.	.
2C/	-cul-	4c/	.	2e/	-cle-	.	.
.	.	4B-/	.	.	.	.	.
1D	-ta-	1.A	.	4f\	.	1r	.
.	.	.	.	4g\	.	.	.
.	.	.	.	4a\	.	.	.
.	.	.	.	4g\	.	.	.
=42-	=42-	=42-	=42-	=42-	=42-	=42-	=42-
!LO:SIC:v:t=custos B-	!	!	!	!	!	!	!
2D/	-tes	.	.	2.f\	.	2r	.
*xywh-#171:1067,3411,3434,723	*	*	*	*	*	*	*
!LO:LB:g=original	!	!	!	!	!	!	!
2B-\	Ec-	2d\	-ſi-	.	.	2r	.
.	.	.	.	4d/	-ſi-	.	.
4A\	-cle-	4c/	-ae	1e	-ae	0cc	quas
4B-\	.	4B-/	.	.	.	.	.
4c\	.	4A/	.	.	.	.	.
4B-\	.	4G/	.	.	.	.	.
=43-	=43-	=43-	=43-	=43-	=43-	=43-	=43-
4A\	.	2F/	.	1r	.	.	.
4G\	.	.	.	.	.	.	.
4F/	.	1c	Ec-	.	.	.	.
4E/	.	.	.	.	.	.	.
!	!	!	!	!LO:SIC:v:t=custos g	!	!	!
1.D	.	.	.	0f	quas	0dd	re-
.	.	4B-/	-cle-	.	.	.	.
.	.	4A/	.	.	.	.	.
*	*	*	*	*xywh-#475:966,3973,3440,713	*	*	*
!	!	!	!	!LO:LB:g=original	!	!	!
=44-	=44-	=44-	=44-	=44-	=44-	=44-	=44-
.	.	2B-/	.	.	.	.	.
2D/	-ſi-	2A/	-ſi-	.	.	.	.
1C	-ae	1c	-ae	2g\	re-	1ee	-qui-
.	.	.	.	1a\	-qui-	.	.
=45-	=45-	=45-	=45-	=45-	=45-	=45-	=45-
1F	quas	1r	.	.	.	1a	-ris
.	.	.	.	1d	-ris	.	.
*	*	*	*	*	*ij	*	*ij
1G	re-	1B-	quas	.	.	2dd\	quas
.	.	.	.	1g\	quas	2d/	re-
=46-	=46-	=46-	=46-	=46-	=46-	=46-	=46-
0A	-qui-	2c/	re-	.	.	0a	-qui-
.	.	2.d\	-qui-	2f\	re-	.	.
.	.	.	.	1e	-qui-	.	.
.	.	8c/	.	.	.	.	.
!	!	!LO:SIC:v:t=custos c	!	!	!	!	!
!	!	!LO:N:acc=#	!	!	!	!	!
.	.	8Bn/	.	.	.	.	.
*	*	*xywh-#323:1062,3873,3427,776	*	*	*	*	*
!	!	!LO:LB:g=original	!	!	!	!	!
!	!	!LO:N:acc=#	!	!	!	!	!
.	.	2cn/	.	.	.	.	.
=47-	=47-	=47-	=47-	=47-	=47-	=47-	=47-
2D/	-ris	2d\	-ris	1d	-ris	0a	-ris
2d\	in	2f\	in	.	.	.	.
2d\	coe-	2f\	coe-	2r	.	.	.
*	*	*	*	*	*Xij	*	*
2.d\	-leſ-	2.f\	-leſ-	2a\	in	.	.
*	*	*	*	*	*	*	*Xij
=48-	=48-	=48-	=48-	=48-	=48-	=48-	=48-
.	.	.	.	2a\	coe-	1r	.
4d\	-tes	4f\	-tes	.	.	.	.
!LO:SIC:v:t=custos c	!	!	!	!	!	!	!
2A\	the-	2c/	the-	2.a\	-leſ-	.	.
*xywh-#171:1083,3961,3450,723	*	*	*	*	*	*	*
!LO:LB:g=original	!	!	!	!	!	!	!
1c	-ſau-	1e	-ſau-	.	.	2r	.
.	.	.	.	4a\	-tes	.	.
.	.	.	.	2g\	the-	2gg\	in
=49-	=49-	=49-	=49-	=49-	=49-	=49-	=49-
1G	-ros	0d	-ros	0b-	-ſau-	2gg\	coe-
.	.	.	.	.	.	2.gg\	-leſ-
1G	ma-	.	.	.	.	.	.
.	.	.	.	.	.	4gg\	-tes
.	.	.	.	.	.	2dd\	the-
=50-	=50-	=50-	=50-	=50-	=50-	=50-	=50-
!	!	!	!	!	!	!LO:SIC:v:t=custos cc	!
2D/	-nus	1d	ma-	1a	-ros	1ff	-ſau-
1F	pau-	.	.	.	.	.	.
*	*	*	*	*	*	*xywh-#627:1055,3939,3436,697	*
!	!	!	!	!	!	!LO:LB:g=original	!
.	.	2A/	-nus	2r	.	1cc	-ros
2E/	-pe-	1c\	pau-	2g\	ma-	.	.
=51-	=51-	=51-	=51-	=51-	=51-	=51-	=51-
0D	-rum	.	.	2f#X\	-nus	2r	.
*	*	*	*	*	*	*	*ij
.	.	2B-y/	-pe-	1g	pau-	2dd\	in
.	.	1A	-rum	.	.	2dd\	coe-
.	.	.	.	4fny\	.	2.dd\	-les-
.	.	.	.	4e/	.	.	.
=52-	=52-	=52-	=52-	=52-	=52-	=52-	=52-
1d	ma-	1r	.	2.f\	.	.	.
.	.	.	.	.	.	4dd\	-tes
.	.	.	.	.	.	2a/	the-
!	!	!	!	!LO:SIC:v:t=custos e	!	!	!
.	.	.	.	4f\	-pe-	.	.
*	*	*	*	*xywh-#475:998,4553,3409,752	*	*	*
2A\	-nus	1a	ma-	1e	-rum	1cc	-sau-
1c\	pau-	.	.	.	.	.	.
=53-	=53-	=53-	=53-	=53-	=53-	=53-	=53-
.	.	2e\	-nus	1r	.	2g/	-ros
*	*	*	*	*	*ij	*	*Xij
2B-\	-pe-	1g	pau-	.	.	2dd\	ma-
1A	-rum	.	.	0a	ma-	2cc#X\	-nus
.	.	2f\	-pe-	.	.	1dd\	pau-
=54-	=54-	=54-	=54-	=54-	=54-	=54-	=54-
1A	de-	1e	-rum	.	.	.	.
.	.	.	.	.	.	2cc#X\	-pe-
!	!	!LO:SIC:v:t=custos d	!	!	!	!	!
2.B-\	-por-	1r	.	2d/	-nus	1dd	-rum
.	.	.	.	1g\	pau-	.	.
4c\	-ta-	.	.	.	.	.	.
*	*	*xywh-#323:1031,4472,3434,806	*	*	*	*	*
!	!	!LO:LB:g=original	!	!	!	!	!
=55-	=55-	=55-	=55-	=55-	=55-	=55-	=55-
1d	-ue-	2r	.	.	.	1a	de-
.	.	2d\	in	2f#X\	-pe-	.	.
2G\	-runt	2d\	coe-	1g	-rum	2.b-/	-por-
2G\	ma-	2.d\	-leſ-	.	.	.	.
.	.	.	.	.	.	4ccny\	-ta-
*	*	*	*	*	*Xij	*	*
=56-	=56-	=56-	=56-	=56-	=56-	=56-	=56-
!LO:SIC:v:t=custos F	!	!	!	!	!	!	!
2D/	-nus	.	.	1r	.	1dd	-ue-
.	.	4d\	-tes	.	.	.	.
*xywh-#171:1075,4519,3442,715	*	*	*	*	*	*	*
!LO:LB:g=original	!	!	!	!	!	!	!
1F	pau-	2A/	the-	.	.	.	.
.	.	1c	-ſau-	2r	.	1g	-runt
2E/	-pe-	.	.	2g\	de-	.	.
=57-	=57-	=57-	=57-	=57-	=57-	=57-	=57-
1D	-rum	2F/	-ros	2.a\	-por-	2r	.
!	!	!	!	!	!	!LO:SIC:v:t=custos g	!
.	.	2f\	ma-	.	.	2a/	ma-
.	.	.	.	4b-\	-ta-	.	.
*	*	*	*	*	*	*xywh-#627:1077,4492,3400,797	*
!	!	!	!	!	!	!LO:LB:g=original	!
1r	.	2e\	-nus	0cc	-ue-	2g/	-nus
.	.	1f\	pau-	.	.	1a/	pau-
=58-	=58-	=58-	=58-	=58-	=58-	=58-	=58-
1A	de-	.	.	.	.	.	.
.	.	2e\	-pe-	.	.	2cc\	-pe-
2.B-\	-por-	1d	-rum	2f\	-runt	2dd\	-rum
.	.	.	.	2b-\	ma-	2ff\	de-
4c\	-ta-	.	.	.	.	.	.
=59-	=59-	=59-	=59-	=59-	=59-	=59-	=59-
1d	-ue-	1r	.	2a\	-nus	4ff\	-por-
.	.	.	.	.	.	4ee\	.
.	.	.	.	1b-	pau-	4dd\	.
.	.	.	.	.	.	4cc\	.
1G	-runt	0d	de-	.	.	1b-	.
.	.	.	.	2g\	-pe-	.	.
=60-	=60-	=60-	=60-	=60-	=60-	=60-	=60-
1D	de-	.	.	2f\	-rum	2a/	-ta-
.	.	.	.	2f\	de-	2.dd\	-ue-
2.E/	-por-	2g\	-por-	2e/	-por-	.	.
.	.	.	.	.	.	4cc\	.
.	.	2e\	-ta-	2g\	-ta-	1cc\	.
4F/	-ta-	.	.	.	.	.	.
=61-	=61-	=61-	=61-	=61-	=61-	=61-	=61-
0G	-ue-	0d	-ue-	0g	-ue-	.	.
!	!	!	!	!	!	!LO:N:acc=#	!
.	.	.	.	.	.	4bn/	.
.	.	.	.	.	.	4a/	.
!	!	!	!	!	!	!LO:N:acc=#	!
.	.	.	.	.	.	1bn	.
=62-	=62-	=62-	=62-	=62-	=62-	=62-	=62-
00C	-runt.	00c	-runt.	00g	-runt.	00cc	-runt.
==	==	==	==	==	==	==	==
*-	*-	*-	*-	*-	*-	*-	*-
!!!system-decoration: [(s1,s2,s3,s4)]
!!!ENC: Andrzej Gręziak
!!!END: 2022-07-02
!!!ENC: Natalia Wrzos
!!!END: 2022-07-09
!!!YEC: Copyright 2022 Narodowy Instytut Fryderyka Chopina (https://polishscores.org)
!!!YEM: License CC-BY-4.0 (https://creativecommons.org/licenses/by/4.0)
!!!IIIF: https://repozytorium.nifc.pl/islandora/object/pl-gd%3A57883/datastream/IIIF/view
!!!ENC-iiif: Lidia Bialucha
!!!END-iiif: 2022-09-11
